X:1
T:Title
%%score { ( 1 3 4 ) | ( 2 5 ) }
L:1/8
M:9/8
K:F
V:1 treble nm="Grand Piano"
V:3 treble 
V:4 treble 
V:2 bass 
V:5 bass 
V:1
 z3 z3[Q:1/4=92] FEF | .[Fd]6 z3 |[M:3/4] [Dd]3[K:bass][K:treble] [DB]3 |[M:3/8] BBB | %4
[M:9/8] .[G_e]6 z3 |[M:3/4] [Fd]6 |[M:3/8] FEF |[M:9/8] .c6 z3 |[M:3/4] [_EG]3 [DF]3 |[M:3/8] FFG | %10
[M:9/8] .A6[K:bass][K:treble] z3 |[M:3/4] F6 |[M:3/8] FGF |[M:9/8] [C_E]3- [CE]cB [FA]G[DF] | %14
[M:3/4][K:bass] [^CE]3 [DF]3 |[M:3/8][K:treble] FGF |[M:9/8] [C_E]3- [CE]cB AGF | %17
[M:3/4] d-[B,d-] [B,d-] [Fd]3 |[M:3/8] d^cd |[M:9/8] z[K:bass] F,F, z[K:treble] FB [Fd][G_e][D=B] | %20
[M:3/4] [Fd]3[K:bass][K:treble] [_Ec]3 |[M:3/8] BAG |[M:9/8] B,B,B, z _ed [Ec][EG][_EA] | %23
[M:3/4] B-[FB-] [_EB-] [DB]3 |] %24
V:2
 z3 z3 D^CD | [B,,B,]B,,B,, z DD [B,,E,]2 [B,,E,] |[M:3/4] [B,,F,]B,, B,, B,,2 B,, | %3
[M:3/8] z z _A |[M:9/8] [_E,B,]E,E, z[K:treble] GG[K:bass] [E,B,]2 [E,B,] | %5
[M:3/4] [B,,B,]B,, B,, B,,3 |[M:3/8] D^CD |[M:9/8] _E-[F,E-][F,E-] EDE EEF, | %8
[M:3/4] B,,B,, B,, B,,2 B,, |[M:3/8] DDD | %10
[M:9/8] C-[C,C-][C,C] z[K:treble] BA[K:bass] [C,C]2 [C,B,] |[M:3/4] [F,A,][F,A,] [F,B,] [F,A,]3 | %12
[M:3/8] D_ED |[M:9/8] F,F,F, z[K:treble] AG[K:bass] z _EF, |[M:3/4] B,,B,, B,, B,,2 B,, | %15
[M:3/8] D_ED |[M:9/8] F,F,F, z[K:treble] AG F_E[K:bass][F,A,E] |[M:3/4] [B,,B,]F, D, [B,,B,]3 | %18
[M:3/8][K:treble] FEF |[M:9/8][K:bass] [B,,F,]B,,B,, z DD [G,,G,]2 [G,,G,] | %20
[M:3/4] [C,G,]C, C, [C,G,]2 C, |[M:3/8][K:treble] GF_E | %22
[M:9/8][K:bass] F,F,F, z[K:treble] GF[K:bass] [C,B,]2 [F,C] | %23
[M:3/4] [B,,B,][B,,A,] [B,,G,] [B,,F,]3 |] %24
V:3
 x9 | z B,B, z BF [^CG][CA][CB] |[M:3/4] z[K:bass] F, F,[K:treble] B,2 B, |[M:3/8] x3 | %4
[M:9/8] z B,B, z _ee [Ge][GB][^Fc] |[M:3/4] z B, B, B,3 |[M:3/8] x3 | %7
[M:9/8] z A,A, z =Bc GA[A,_EG] |[M:3/4] B,B, B, B,2 B, |[M:3/8] x3 | %10
[M:9/8] z[K:bass] F,A,[K:treble] Fdc [GB][FA][EG] |[M:3/4] z C D C3 |[M:3/8] x3 |[M:9/8] x9 | %14
[M:3/4][K:bass] G,G, G, F,2 F, |[M:3/8][K:treble] x3 |[M:9/8] x9 |[M:3/4] D4 z2 |[M:3/8] x3 | %19
[M:9/8] .[DB]6[K:bass][K:treble] z3 |[M:3/4] z[K:bass] F, .G,2[K:treble] z G, |[M:3/8] x3 | %22
[M:9/8] .[DF]6 z3 |[M:3/4] .D2 z2 z2 |] %24
V:4
 x9 | z3 B,3 z3 |[M:3/4] x[K:bass] x2[K:treble] x3 |[M:3/8] x3 |[M:9/8] z3 B,3 z3 |[M:3/4] x6 | %6
[M:3/8] x3 |[M:9/8] z3 A,3 z3 |[M:3/4] x6 |[M:3/8] x3 |[M:9/8] x[K:bass] x2[K:treble] x6 | %11
[M:3/4] x6 |[M:3/8] x3 |[M:9/8] x9 |[M:3/4][K:bass] x6 |[M:3/8][K:treble] x3 |[M:9/8] x9 | %17
[M:3/4] x6 |[M:3/8] x3 |[M:9/8] z3[K:bass] F,3[K:treble] z3 |[M:3/4] x[K:bass] x2[K:treble] x3 | %21
[M:3/8] x3 |[M:9/8] z3 B,3 z3 |[M:3/4] x6 |] %24
V:5
 x9 | z3 B,,3 z3 |[M:3/4] x6 |[M:3/8] x3 |[M:9/8] z3 _E,3[K:treble][K:bass] z3 |[M:3/4] x6 | %6
[M:3/8] x3 |[M:9/8] .[F,A,]3 F,3 .[F,A,]3 |[M:3/4] x6 |[M:3/8] x3 | %10
[M:9/8] .[C,F,]3 [C,C]3[K:treble][K:bass] z3 |[M:3/4] x6 |[M:3/8] x3 | %13
[M:9/8] z3 F,3[K:treble][K:bass] .F,3 |[M:3/4] x6 |[M:3/8] x3 | %16
[M:9/8] z3 F,3[K:treble] .[F,C]3[K:bass] |[M:3/4] x6 |[M:3/8][K:treble] x3 | %19
[M:9/8][K:bass] z3 B,,3 z3 |[M:3/4] x6 |[M:3/8][K:treble] x3 | %22
[M:9/8][K:bass] z3 F,3[K:treble][K:bass] z3 |[M:3/4] x6 |] %24

